src/images/circle1.svg

<svg width="313" height="456" viewBox="0 0 313 456" fill="none" xmlns="http://www.w3.org/2000/svg">
<g clip-path="url(#clip0_334_47)">
<path d="M112.32 26.4108C1.73923 11.8174 -99.736 89.6422 -114.331 200.237C-128.927 310.833 -51.1149 412.318 59.4659 426.911C170.047 441.505 271.522 363.68 286.117 253.085C300.713 142.49 222.901 41.0042 112.32 26.4108Z" fill="url(#paint0_radial_334_47)"/>
<mask id="mask0_334_47" style="mask-type:luminance" maskUnits="userSpaceOnUse" x="-86" y="165" width="229" height="228">
<path d="M43.313 166.45C-18.9359 158.234 -76.0592 202.044 -84.2752 264.301C-92.4913 326.558 -48.689 383.687 13.56 391.902C75.809 400.117 132.932 356.308 141.148 294.05C149.364 231.793 105.562 174.665 43.313 166.45Z" fill="white"/>
</mask>
<g mask="url(#mask0_334_47)">
<path d="M43.313 166.45C-18.9359 158.234 -76.0592 202.044 -84.2752 264.301C-92.4913 326.558 -48.689 383.687 13.56 391.902C75.809 400.117 132.932 356.308 141.148 294.05C149.364 231.793 105.562 174.665 43.313 166.45Z" fill="url(#paint1_linear_334_47)"/>
<path d="M32.0423 156.951C-40.7427 147.345 -107.534 198.57 -117.141 271.365C-126.748 344.159 -75.5316 410.957 -2.74663 420.563C70.0384 430.168 136.83 378.944 146.437 306.149C156.043 233.355 104.827 166.556 32.0423 156.951Z" fill="url(#paint2_radial_334_47)"/>
</g>
</g>
<defs>
<radialGradient id="paint0_radial_334_47" cx="0" cy="0" r="1" gradientUnits="userSpaceOnUse" gradientTransform="translate(85.893 226.661) rotate(-172.482) scale(201.96 201.987)">
<stop offset="0.03" stop-color="#00DCCD"/>
<stop offset="0.06" stop-color="#00DCCD" stop-opacity="0.94"/>
<stop offset="0.2" stop-color="#00DCCD" stop-opacity="0.69"/>
<stop offset="0.34" stop-color="#00DCCD" stop-opacity="0.48"/>
<stop offset="0.47" stop-color="#00DCCD" stop-opacity="0.31"/>
<stop offset="0.61" stop-color="#00DCCD" stop-opacity="0.17"/>
<stop offset="0.74" stop-color="#00DCCD" stop-opacity="0.08"/>
<stop offset="0.88" stop-color="#00DCCD" stop-opacity="0.02"/>
<stop offset="1" stop-color="#00DCCD" stop-opacity="0"/>
</radialGradient>
<linearGradient id="paint1_linear_334_47" x1="118.647" y1="209.99" x2="-61.7919" y2="348.338" gradientUnits="userSpaceOnUse">
<stop offset="0.31" stop-color="#5449FF"/>
<stop offset="0.91" stop-color="#9603FF"/>
</linearGradient>
<radialGradient id="paint2_radial_334_47" cx="0" cy="0" r="1" gradientUnits="userSpaceOnUse" gradientTransform="translate(14.6478 288.757) rotate(97.5179) scale(132.949 132.932)">
<stop offset="0.57" stop-color="#00C3BB" stop-opacity="0"/>
<stop offset="0.61" stop-color="#00C4BC" stop-opacity="0.02"/>
<stop offset="0.66" stop-color="#00C8BF" stop-opacity="0.09"/>
<stop offset="0.72" stop-color="#00CEC4" stop-opacity="0.19"/>
<stop offset="0.78" stop-color="#00D7CB" stop-opacity="0.34"/>
<stop offset="0.85" stop-color="#00E3D4" stop-opacity="0.54"/>
<stop offset="0.92" stop-color="#00F0DF" stop-opacity="0.77"/>
<stop offset="0.98" stop-color="#00FFEB"/>
</radialGradient>
<clipPath id="clip0_334_47">
<rect width="403.921" height="405.806" fill="white" transform="translate(259.449 455.165) rotate(-172.482)"/>
</clipPath>
</defs>
</svg>

<svg width="313" height="456" fill="none" xmlns="http://www.w3.org/2000/svg"><g clip-path="url(#a)"><path d="M112.32 26.41C1.74 11.818-99.736 89.643-114.331 200.238c-14.596 110.596 63.216 212.081 173.797 226.674 110.581 14.594 212.056-63.231 226.651-173.826C300.713 142.49 222.901 41.005 112.32 26.411Z" fill="url(#b)"/><mask id="c" style="mask-type:luminance" maskUnits="userSpaceOnUse" x="-86" y="165" width="229" height="228"><path d="M43.313 166.45c-62.249-8.216-119.372 35.594-127.588 97.851-8.216 62.257 35.586 119.386 97.835 127.601 62.249 8.215 119.372-35.594 127.588-97.852 8.216-62.257-35.586-119.385-97.835-127.6Z" fill="#fff"/></mask><g mask="url(#c)"><path d="M43.313 166.45c-62.249-8.216-119.372 35.594-127.588 97.851-8.216 62.257 35.586 119.386 97.835 127.601 62.249 8.215 119.372-35.594 127.588-97.852 8.216-62.257-35.586-119.385-97.835-127.6Z" fill="url(#d)"/><path d="M32.042 156.951c-72.785-9.606-139.576 41.619-149.183 114.414-9.607 72.794 41.61 139.592 114.394 149.198 72.785 9.605 139.577-41.619 149.184-114.414 9.606-72.794-41.61-139.593-114.395-149.198Z" fill="url(#e)"/></g></g><defs><radialGradient id="b" cx="0" cy="0" r="1" gradientUnits="userSpaceOnUse" gradientTransform="matrix(-200.22391 -26.42397 26.4275 -200.25068 85.893 226.661)"><stop offset=".03" stop-color="#00DCCD"/><stop offset=".06" stop-color="#00DCCD" stop-opacity=".94"/><stop offset=".2" stop-color="#00DCCD" stop-opacity=".69"/><stop offset=".34" stop-color="#00DCCD" stop-opacity=".48"/><stop offset=".47" stop-color="#00DCCD" stop-opacity=".31"/><stop offset=".61" stop-color="#00DCCD" stop-opacity=".17"/><stop offset=".74" stop-color="#00DCCD" stop-opacity=".08"/><stop offset=".88" stop-color="#00DCCD" stop-opacity=".02"/><stop offset="1" stop-color="#00DCCD" stop-opacity="0"/></radialGradient><radialGradient id="e" cx="0" cy="0" r="1" gradientUnits="userSpaceOnUse" gradientTransform="rotate(97.518 -119.253 150.8) scale(132.949 132.932)"><stop offset=".57" stop-color="#00C3BB" stop-opacity="0"/><stop offset=".61" stop-color="#00C4BC" stop-opacity=".02"/><stop offset=".66" stop-color="#00C8BF" stop-opacity=".09"/><stop offset=".72" stop-color="#00CEC4" stop-opacity=".19"/><stop offset=".78" stop-color="#00D7CB" stop-opacity=".34"/><stop offset=".85" stop-color="#00E3D4" stop-opacity=".54"/><stop offset=".92" stop-color="#00F0DF" stop-opacity=".77"/><stop offset=".98" stop-color="#00FFEB"/></radialGradient><linearGradient id="d" x1="118.647" y1="209.99" x2="-61.792" y2="348.338" gradientUnits="userSpaceOnUse"><stop offset=".31" stop-color="#5449FF"/><stop offset=".91" stop-color="#9603FF"/></linearGradient><clipPath id="a"><path fill="#fff" transform="rotate(-172.482 144.677 219.06)" d="M0 0h403.921v405.806H0z"/></clipPath></defs></svg>
